X: 9135
T: Red Hand (The) (with piano acc.)
C: BB
R: polka
Q: 1/8=300
M: 2/4
L: 1/8
V: 1 program 1 73 %flute
V: 2 volume=70 clef=bass m=D program 1 01
K: G
[V:1] "G"G>A Bd | "D"cA FA | "G"GB "Am"Ac | "G"Bg "D"d2 |
[V:2] [G,4B,4D4]|[D,4F,4A,4]|[G,2B,2D2][A,2C2E2]|[G,2B,2D2][D,2F,2A,2]|
%
[V:1] "G"g>d BG | "C"cG EC | "D"D>E FD | "G"G2 "G"G2 :|
[V:2] [G,4B,4D4]|[C,4E,4G,4]|[D,4F,4A,4]|[G,2B,2D2][G,2B,2D2]:|
%
[V:1] "G"dg fg | "Am"a>g fe | "G"dg Bd | "D7"cB A2 |
[V:2] [G,4B,4D4]|[A,,4C,4E4]|[G,4B,4D4]|[D,4F,4A,4C4]|
%
[V:1] "G"G>A Bd | "C"ce ge | "D"d>B cA |"G"G2 "G"G2 :|
[V:2] [G,4B,4D4]|[C,4E,4G,4]|[D,4F,4A,4]|[G,2B,2D2][G,2B,2D2] :|
%%%%%tune repeat
[V:1] "G"G>A Bd | "D"cA FA | "G"GB "Am"Ac | "G"Bg "D"d2 |
[V:2] [G,4B,4D4]|[D,4F,4A,4]|[G,2B,2D2][A,2C2E2]|[G,2B,2D2][D,2F,2A,2]|
%
[V:1] "G"g>d BG | "C"cG EC | "D"D>E FD | "G"G2 "G"G2 :|
[V:2] [G,4B,4D4]|[C,4E,4G,4]|[D,4F,4A,4]|[G,2B,2D2][G,2B,2D2]:|
%
[V:1] "G"dg fg | "Am"a>g fe | "G"dg Bd | "D7"cB A2 |
[V:2] [G,4B,4D4]|[A,,4C,4E4]|[G,4B,4D4]|[D,4F,4A,4C4]|
%
[V:1] "G"G>A Bd | "C"ce ge | "D"d>B cA |1 "G"G2 "G"G2 :|2 "G"G2 "G"G2-|G4||
[V:2] [G,4B,4D4]|[C,4E,4G,4]|[D,4F,4A,4]|1 [G,2B,2D2][G,2B,2D2] :|2\
[G,2B,2D2][G,2-B,2-D2-]|[G,4B,4D4]||

%%%%%%%%%%%%%%%%%%%%%%%%%%%%%%%%%%%%%%%%%%%

